src/lib/packages/icons/src/assets/line/clipboard-check.svg

<svg xmlns="http://www.w3.org/2000/svg" width="24" height="24" fill="none"><path fill="currentColor" d="M17 4.25h-.27c-.097-1.254-.909-2-2.23-2h-5c-1.321 0-2.133.746-2.23 2H7C4.582 4.25 3.25 5.582 3.25 8v10c0 2.418 1.332 3.75 3.75 3.75h10c2.418 0 3.75-1.332 3.75-3.75V8c0-2.418-1.332-3.75-3.75-3.75Zm-8.25.25c0-.589.161-.75.75-.75h5c.589 0 .75.161.75.75v1c0 .589-.161.75-.75.75h-5c-.589 0-.75-.161-.75-.75v-1ZM19.25 18c0 1.577-.673 2.25-2.25 2.25H7c-1.577 0-2.25-.673-2.25-2.25V8c0-1.577.673-2.25 2.25-2.25h.27c.097 1.254.909 2 2.23 2h5c1.321 0 2.133-.746 2.23-2H17c1.577 0 2.25.673 2.25 2.25v10Zm-4.22-6.864a.75.75 0 0 1 0 1.061l-3.333 3.333a.748.748 0 0 1-1.06 0L8.97 13.863a.75.75 0 1 1 1.061-1.061l1.137 1.136 2.803-2.803a.75.75 0 0 1 1.059.001Z"/></svg>

<svg width="24" height="24" viewBox="0 0 24 24" fill="none" xmlns="http://www.w3.org/2000/svg">
<path d="M17 4.25H16.73C16.633 2.996 15.821 2.25 14.5 2.25H9.5C8.179 2.25 7.36702 2.996 7.27002 4.25H7C4.582 4.25 3.25 5.582 3.25 8V18C3.25 20.418 4.582 21.75 7 21.75H17C19.418 21.75 20.75 20.418 20.75 18V8C20.75 5.582 19.418 4.25 17 4.25ZM8.75 4.5C8.75 3.911 8.911 3.75 9.5 3.75H14.5C15.089 3.75 15.25 3.911 15.25 4.5V5.5C15.25 6.089 15.089 6.25 14.5 6.25H9.5C8.911 6.25 8.75 6.089 8.75 5.5V4.5ZM19.25 18C19.25 19.577 18.577 20.25 17 20.25H7C5.423 20.25 4.75 19.577 4.75 18V8C4.75 6.423 5.423 5.75 7 5.75H7.27002C7.36702 7.004 8.179 7.75 9.5 7.75H14.5C15.821 7.75 16.633 7.004 16.73 5.75H17C18.577 5.75 19.25 6.423 19.25 8V18ZM15.03 11.136C15.323 11.429 15.323 11.904 15.03 12.197L11.697 15.53C11.551 15.676 11.359 15.75 11.167 15.75C10.975 15.75 10.783 15.677 10.637 15.53L8.96997 13.863C8.67697 13.57 8.67697 13.095 8.96997 12.802C9.26297 12.509 9.73801 12.509 10.031 12.802L11.168 13.938L13.9709 11.135C14.2629 10.844 14.737 10.844 15.03 11.136Z" fill="currentColor"/>
</svg>
